libs/ui/packages/crypto-icons/src/svg/RLC.svg

<svg width="24" height="24" viewBox="0 0 24 24" fill="none">
<path fill-rule="evenodd" clip-rule="evenodd" d="M16.6373 9.6645C16.68 9.62175 16.7648 9.62175 16.848 9.62175C18.1133 9.62175 19.125 10.6927 19.125 11.979C19.125 13.179 18.24 14.1217 17.1015 14.3355H16.848C16.4265 14.3355 16.005 14.2072 15.6255 13.9928C15.5023 13.906 15.3546 13.8611 15.204 13.8645C15.0352 13.8645 14.8665 13.9072 14.7405 13.9928C14.445 14.1645 14.319 14.4645 14.319 14.8073V15.1927C14.2746 15.7222 14.049 16.2201 13.6802 16.6026C13.3115 16.9852 12.8222 17.2289 12.2947 17.2927H12.042C11.6205 17.2927 11.199 17.1645 10.8195 16.95C10.6507 16.8645 10.5247 16.8218 10.356 16.8218C10.1872 16.8218 10.0185 16.8645 9.89175 16.95C9.597 17.1217 9.47025 17.4218 9.47025 17.7645V18.15C9.38625 19.2645 8.5005 20.1217 7.40475 20.25H7.194C5.92875 20.25 4.917 19.1783 4.917 17.8927C4.959 16.6927 5.802 15.7072 6.9405 15.5782H7.194C7.6155 15.5782 8.037 15.7072 8.4165 15.9218C8.53967 16.0085 8.6874 16.0534 8.838 16.05C9.00675 16.05 9.1755 16.0072 9.3015 15.9218C9.597 15.75 9.723 15.45 9.723 15.1073C9.639 13.8645 10.5248 12.75 11.7473 12.6217H12C12.4215 12.6217 12.843 12.75 13.2225 12.9645C13.3912 13.05 13.518 13.0928 13.6868 13.0928C13.8548 13.0928 14.0243 13.05 14.1503 12.9645C14.445 12.7927 14.5718 12.4928 14.5718 12.15C14.4878 10.9073 15.4148 9.79275 16.6373 9.6645ZM11.79 6.70725C11.874 6.6645 11.9167 6.6645 12.0427 6.6645C13.308 6.6645 14.3197 7.7355 14.3197 9.02175C14.2778 10.2218 13.4347 11.2073 12.2955 11.3355H12.0427C11.6212 11.3355 11.1997 11.2072 10.8203 10.9927C10.6971 10.906 10.5494 10.8611 10.3987 10.8645C10.23 10.8645 10.0612 10.9072 9.93525 10.9927C9.63975 11.1645 9.513 11.4645 9.513 11.8073V12.1927C9.429 13.3065 8.544 14.1637 7.4475 14.2927H7.23675C5.97225 14.2927 4.95975 13.2217 4.95975 11.9355C4.95975 10.779 5.8035 9.8355 6.94125 9.6645H7.19475C7.61625 9.6645 8.03775 9.79275 8.41725 10.0073C8.54042 10.094 8.68815 10.1389 8.83875 10.1355C9.0075 10.1355 9.17625 10.0928 9.30225 10.0073C9.59775 9.8355 9.72375 9.5355 9.72375 9.19275C9.63975 7.95 10.5675 6.8355 11.79 6.70725ZM7.152 3.75C8.409 3.75 9.42825 4.7865 9.42825 6.0645C9.42825 7.3425 8.40825 8.37825 7.152 8.37825C5.89425 8.37825 4.875 7.3425 4.875 6.0645C4.875 4.7865 5.895 3.75 7.152 3.75Z" fill="#FFD800"/>
</svg>

<svg width="24" height="24" viewBox="0 0 24 24" fill="none"><path fill="#ffd800" fill-rule="evenodd" d="M16.637 9.665c.043-.043.128-.043.211-.043 1.265 0 2.277 1.07 2.277 2.357 0 1.2-.885 2.143-2.023 2.357h-.254a2.5 2.5 0 0 1-1.222-.343.7.7 0 0 0-.422-.129.84.84 0 0 0-.463.129c-.296.172-.422.471-.422.814v.386a2.31 2.31 0 0 1-2.024 2.1h-.253c-.421 0-.843-.128-1.223-.343a.95.95 0 0 0-.463-.128.84.84 0 0 0-.464.128c-.295.172-.422.472-.422.815v.385c-.084 1.115-.97 1.972-2.065 2.1h-.211c-1.265 0-2.277-1.072-2.277-2.357.042-1.2.885-2.186 2.024-2.315h.253c.422 0 .843.13 1.222.344a.7.7 0 0 0 .422.128.84.84 0 0 0 .464-.128c.295-.172.421-.472.421-.815-.084-1.242.802-2.357 2.024-2.485H12c.422 0 .843.128 1.223.342a.95.95 0 0 0 .464.129.84.84 0 0 0 .463-.129c.295-.171.422-.471.422-.814-.084-1.243.843-2.357 2.065-2.485M11.79 6.707c.084-.042.127-.042.253-.042 1.265 0 2.277 1.07 2.277 2.357-.042 1.2-.885 2.185-2.024 2.313h-.253c-.422 0-.843-.128-1.223-.342a.7.7 0 0 0-.421-.129.84.84 0 0 0-.464.129c-.295.172-.422.471-.422.814v.386c-.084 1.114-.969 1.97-2.065 2.1h-.211c-1.265 0-2.277-1.071-2.277-2.357 0-1.157.843-2.1 1.981-2.271h.254c.421 0 .843.128 1.222.342a.7.7 0 0 0 .422.129.84.84 0 0 0 .463-.129c.296-.171.422-.471.422-.814-.084-1.243.844-2.357 2.066-2.486M7.152 3.75c1.257 0 2.276 1.037 2.276 2.315 0 1.277-1.02 2.313-2.276 2.313-1.258 0-2.277-1.035-2.277-2.314 0-1.277 1.02-2.314 2.277-2.314" clip-rule="evenodd"/></svg>
